X: 1033
T: The Monaghan Jig
R:double jig
N:"collected by Gillan"
B:O'Neill's 1033
Z:Transcribed by henrik.norbeck@mailbox.swipnet.se
M:6/8
L:1/8
K:Em
BGE TF2 E|BGE FGA|BGE TF2 E|AFD FGA|
BGE TF2 E|BGE FGA|dcB ABG|(FD)F AGF:|
EGB efg|"~"fed edB|EGB dBG|"~"FDF AGF|
EGB efg|fed edB|dcB ABG|("~"FD)F AGF:|
Tg2e efe|geg bge|Tg2e efg|fdf agf|
Tg2e efe|geg bge|dcB ABG|("~"FD)F AGF:|


